src/images/global/icons/nav/menu.svg

<?xml version="1.0" encoding="UTF-8"?>
<svg width="48px" height="48px" viewBox="0 0 48 48" version="1.1" xmlns="http://www.w3.org/2000/svg" xmlns:xlink="http://www.w3.org/1999/xlink">
    <!-- Generator: Sketch 46.2 (44496) - http://www.bohemiancoding.com/sketch -->
    <title>icon/Nav/menu</title>
    <desc>Created with Sketch.</desc>
    <defs>
        <path d="M25,0 C25.5522847,0 26,0.44771525 26,1 C26,1.55228475 25.5522847,2 25,2 L1,2 C0.44771525,2 0,1.55228475 0,1 C0,0.44771525 0.44771525,0 1,0 L25,0 Z M25,10 C25.5522847,10 26,10.4477153 26,11 C26,11.5522847 25.5522847,12 25,12 L1,12 C0.44771525,12 0,11.5522847 0,11 C0,10.4477153 0.44771525,10 1,10 L25,10 Z M25,20 C25.5522847,20 26,20.4477153 26,21 C26,21.5522847 25.5522847,22 25,22 L1,22 C0.44771525,22 0,21.5522847 0,21 C0,20.4477153 0.44771525,20 1,20 L25,20 Z" id="path-1"></path>
    </defs>
    <g id="Symbols" stroke="none" stroke-width="1" fill="none" fill-rule="evenodd">
        <g id="icon/Nav/menu">
            <g id="Icon" transform="translate(11.000000, 13.000000)">
                <mask id="mask-2" fill="white">
                    <use xlink:href="#path-1"></use>
                </mask>
                <use id="Mask" fill="#384048" fill-rule="nonzero" xlink:href="#path-1"></use>
                <g id="Color/Grayscale/Night-Sky" mask="url(#mask-2)" fill="#111111">
                    <g transform="translate(-11.000000, -13.000000)" id="Swatch">
                        <rect x="0" y="0" width="48" height="48"></rect>
                    </g>
                </g>
            </g>
        </g>
    </g>
</svg>

<?xml version="1.0" encoding="utf-8"?>
<!-- Generator: Adobe Illustrator 21.0.2, SVG Export Plug-In . SVG Version: 6.00 Build 0)  -->
<svg version="1.1" id="icon_x2F_Nav_x2F_menu-Layer_1" xmlns="http://www.w3.org/2000/svg" xmlns:xlink="http://www.w3.org/1999/xlink" x="0px" y="0px"
	 viewBox="0 0 48 48" style="enable-background:new 0 0 48 48;" xml:space="preserve">
<title>icon/Nav/menu</title>
<desc>Created with Sketch.</desc>
<g id="icon_x2F_Nav_x2F_menu-Symbols">
	<g id="icon_x2F_Nav_x2F_menu">
		<g id="icon_x2F_Nav_x2F_menu-Icon" transform="translate(11.000000, 13.000000)">
			<g id="icon_x2F_Nav_x2F_menu-Mask">
				<path id="icon_x2F_Nav_x2F_menu-path-1_1_" style="fill:#384048;" d="M25,0c0.6,0,1,0.4,1,1s-0.4,1-1,1H1C0.4,2,0,1.6,0,1s0.4-1,1-1H25z M25,10
					c0.6,0,1,0.4,1,1s-0.4,1-1,1H1c-0.6,0-1-0.4-1-1s0.4-1,1-1H25z M25,20c0.6,0,1,0.4,1,1s-0.4,1-1,1H1c-0.6,0-1-0.4-1-1s0.4-1,1-1
					H25z"/>
			</g>
			<defs>
				<filter id="icon_x2F_Nav_x2F_menu-Adobe_OpacityMaskFilter" filterUnits="userSpaceOnUse" x="-11" y="-13" width="48" height="48">
					<feColorMatrix  type="matrix" values="1 0 0 0 0  0 1 0 0 0  0 0 1 0 0  0 0 0 1 0"/>
				</filter>
			</defs>
			<mask maskUnits="userSpaceOnUse" x="-11" y="-13" width="48" height="48" id="icon_x2F_Nav_x2F_menu-mask-2">
				<g style="filter:url(#icon_x2F_Nav_x2F_menu-Adobe_OpacityMaskFilter);">
					<path id="icon_x2F_Nav_x2F_menu-path-1" style="fill:#FFFFFF;" d="M25,0c0.6,0,1,0.4,1,1s-0.4,1-1,1H1C0.4,2,0,1.6,0,1s0.4-1,1-1H25z M25,10
						c0.6,0,1,0.4,1,1s-0.4,1-1,1H1c-0.6,0-1-0.4-1-1s0.4-1,1-1H25z M25,20c0.6,0,1,0.4,1,1s-0.4,1-1,1H1c-0.6,0-1-0.4-1-1
						s0.4-1,1-1H25z"/>
				</g>
			</mask>
			<g id="icon_x2F_Nav_x2F_menu-Color_x2F_Grayscale_x2F_Night-Sky" style="mask:url(#icon_x2F_Nav_x2F_menu-mask-2);">
				<g id="icon_x2F_Nav_x2F_menu-Swatch" transform="translate(-11.000000, -13.000000)">
					<rect style="fill:#111111;" width="48" height="48"/>
				</g>
			</g>
		</g>
	</g>
</g>
</svg>
